static/images/team-work.svg

<svg viewBox="0 0 500 500" xmlns="http://www.w3.org/2000/svg"><circle cx="254.06" cy="294.13" fill="none" r="109" stroke="#24e2bb" stroke-miterlimit="10" stroke-width="4"/><rect fill="#f9f7f8" height="77.57" rx="27.95" width="77.57" x="215.75" y="158.37"/><circle cx="228.87" cy="130.42" fill="#520993" r="11.41"/><circle cx="273.36" cy="124.72" fill="#520993" r="11.41"/><rect fill="#f9f7f8" height="77.57" rx="27.95" width="77.57" x="119.06" y="319.2"/><path d="m128.54 279.55-9.48 39.65h77.58l-13.64-39.65z" fill="#520993"/><path d="m156 258.45a28.64 28.64 0 0 0 -28.65 28.23h57.3a28.66 28.66 0 0 0 -28.65-28.23z" fill="#520993" stroke="#520993" stroke-miterlimit="10" stroke-width="2"/><path d="m128.48 299.46a27.52 27.52 0 0 0 27.52 27.54 27.52 27.52 0 0 0 27.52-27.52v-11.25c0-.13 0-.27 0-.41h-55v.41z" fill="#fff" stroke="#520993" stroke-miterlimit="10" stroke-width="4"/><path d="m156.14 318.63a8 8 0 0 0 8-8h-16a8 8 0 0 0 8 8z" fill="#f29021"/><path d="m252.69 100.48a28.66 28.66 0 0 0 -28.69 28.23h57.31a28.66 28.66 0 0 0 -28.62-28.23z" fill="#520993"/><path d="m225.16 140.92a27.53 27.53 0 0 0 27.53 27.52 27.52 27.52 0 0 0 27.52-27.52v-11.23c0-.13 0-.27 0-.41h-55v.41z" fill="#fff" stroke="#520993" stroke-miterlimit="10" stroke-width="4"/><path d="m252.83 160.09a8 8 0 0 0 8-8h-16a8 8 0 0 0 8 8z" fill="#f29021"/><g fill="#520993"><circle cx="232.29" cy="116.16" r="11.41"/><circle cx="239.14" cy="108.18" r="11.41"/><circle cx="254.54" cy="106.47" r="11.41"/><circle cx="269.94" cy="109.32" r="11.41"/><circle cx="275.64" cy="117.88" r="11.41"/><circle cx="235.92" cy="124.43" r="11.41"/><circle cx="248.47" cy="125.84" r="7.33"/></g><rect fill="#f9f7f8" height="77.57" rx="27.95" width="77.57" x="305.74" y="317.87"/><path d="m342.65 258.12a28.28 28.28 0 0 0 -28.27 27.88h56.54a28.28 28.28 0 0 0 -28.27-27.88z" fill="#520993" stroke="#520993" stroke-miterlimit="10" stroke-width="2"/><path d="m315.15 298.13a27.52 27.52 0 0 0 27.52 27.52 27.52 27.52 0 0 0 27.52-27.52v-11.23c0-.13 0-.27 0-.41h-55v.41z" fill="#fff" stroke="#520993" stroke-miterlimit="10" stroke-width="4"/><path d="m342.81 317.3a8 8 0 0 0 8-8h-16a8 8 0 0 0 8 8z" fill="#f29021"/></svg>

<svg id="Layer_1" data-name="Layer 1" xmlns="http://www.w3.org/2000/svg" viewBox="0 0 500 500"><defs><style>.cls-1{fill:none;stroke:#24e2bb;}.cls-1,.cls-4,.cls-5{stroke-miterlimit:10;}.cls-1,.cls-5{stroke-width:4px;}.cls-2{fill:#f9f7f8;}.cls-3,.cls-4{fill:#520993;}.cls-4,.cls-5{stroke:#520993;}.cls-4{stroke-width:2px;}.cls-5{fill:#fff;}.cls-6{fill:#f29021;}</style></defs><title>team work</title><circle class="cls-1" cx="254.06" cy="294.13" r="109"/><rect class="cls-2" x="215.75" y="158.37" width="77.57" height="77.57" rx="27.95"/><circle class="cls-3" cx="228.87" cy="130.42" r="11.41"/><circle class="cls-3" cx="273.36" cy="124.72" r="11.41"/><rect class="cls-2" x="119.06" y="319.2" width="77.57" height="77.57" rx="27.95"/><polygon class="cls-3" points="128.54 279.55 119.06 319.2 196.64 319.2 183 279.55 128.54 279.55"/><path class="cls-4" d="M156,258.45h0a28.64,28.64,0,0,0-28.65,28.23h57.3A28.66,28.66,0,0,0,156,258.45Z"/><path class="cls-5" d="M128.48,299.46A27.52,27.52,0,0,0,156,327h0a27.52,27.52,0,0,0,27.52-27.52V288.23c0-.13,0-.27,0-.41h-55c0,.14,0,.28,0,.41Z"/><path class="cls-6" d="M156.14,318.63a8,8,0,0,0,8-8h-16A8,8,0,0,0,156.14,318.63Z"/><path class="cls-3" d="M252.69,100.48h0A28.66,28.66,0,0,0,224,128.71h57.31A28.66,28.66,0,0,0,252.69,100.48Z"/><path class="cls-5" d="M225.16,140.92a27.53,27.53,0,0,0,27.53,27.52h0a27.52,27.52,0,0,0,27.52-27.52V129.69c0-.13,0-.27,0-.41h-55c0,.14,0,.28,0,.41Z"/><path class="cls-6" d="M252.83,160.09a8,8,0,0,0,8-8h-16A8,8,0,0,0,252.83,160.09Z"/><circle class="cls-3" cx="232.29" cy="116.16" r="11.41"/><circle class="cls-3" cx="239.14" cy="108.18" r="11.41"/><circle class="cls-3" cx="254.54" cy="106.47" r="11.41"/><circle class="cls-3" cx="269.94" cy="109.32" r="11.41"/><circle class="cls-3" cx="275.64" cy="117.88" r="11.41"/><circle class="cls-3" cx="235.92" cy="124.43" r="11.41"/><circle class="cls-3" cx="248.47" cy="125.84" r="7.33"/><rect class="cls-2" x="305.74" y="317.87" width="77.57" height="77.57" rx="27.95"/><path class="cls-4" d="M342.65,258.12h0A28.28,28.28,0,0,0,314.38,286h56.54A28.28,28.28,0,0,0,342.65,258.12Z"/><path class="cls-5" d="M315.15,298.13a27.52,27.52,0,0,0,27.52,27.52h0a27.52,27.52,0,0,0,27.52-27.52V286.9c0-.13,0-.27,0-.41h-55c0,.14,0,.28,0,.41Z"/><path class="cls-6" d="M342.81,317.3a8,8,0,0,0,8-8h-16A8,8,0,0,0,342.81,317.3Z"/></svg>
